outputs/icons/device/wifi_off_alt_round.svg

<svg xmlns="http://www.w3.org/2000/svg" width="1200" height="1200" fill="none"><g clip-path="url(#a)"><path fill="#000" d="M1182.005 349.989c-22.5-17-246.5-200-582-200-66 0-127.499 7-184.5 19l506 506.001zM206.006 100.49c-19.501-19.5-51.001-19.5-70.501 0-19.499 19.499-19.499 51 0 70.499l67.5 67.5c-107.5 49.5-173.5 102.501-185 111.5l504 628.001c40 50 116 50 156 0l117.5-146.5 130.5 130.5c19.5 19.5 51 19.5 70.5 0s19.5-51 0-70.5z"/></g><defs><clipPath id="a"><path fill="#fff" d="M0 0h1200v1200H0z"/></clipPath></defs></svg>

<svg width="1200" height="1200" viewBox="0 0 1200 1200" fill="none" xmlns="http://www.w3.org/2000/svg"><g clip-path="url(#clip0_231_4447)"><path d="M1182.005 349.989C1159.505 332.989 935.505 149.989 600.005 149.989C534.005 149.989 472.506 156.989 415.505 168.989L921.505 674.99L1182.005 349.989ZM206.006 100.49C186.505 80.99 155.005 80.99 135.505 100.49C116.006 119.989 116.006 151.49 135.505 170.989L203.005 238.489C95.505 287.989 29.505 340.99 18.005 349.989L522.005 977.99C562.005 1027.99 638.005 1027.99 678.005 977.99L795.505 831.49L926.005 961.99C945.505 981.49 977.005 981.49 996.505 961.99C1016.005 942.49 1016.005 910.99 996.505 891.49L206.006 100.49Z" fill="black"/></g><defs><clipPath id="clip0_231_4447"><path width="24" fill="white" d="M0 0H1200V1200H0V0z"/></clipPath></defs></svg>
